!!!!SEGMENT: pl-sa--l-1643--091_anonim--gaude-pia-mater-christi.krn
!!!cenid: 16xx:1449
!!!COM: Anonim
!!!COM-rismid: pe30004985
!!!CDT:
!!!CNT:
!!!OTL: Gaude pia mater Christi
!!!PDT:
!!!AGN: Sacred
!!!SMS-siglum: PL-SA
!!!SMS-shelfmark: L 1643
!!!SMS-shelfwork: 091 W
!!!SMS-variant:
!!!SMS-altvar:
!!!NIFC-rismid: 1001064153
!!!system-decoration: [(s1,s2,s3,s4)][(s5,s6,s7,s8)]
!!!AIN: 8 empty
!!!key:
**kern	**text	**text	**text	**text	**text	**text	**text	**kern	**text	**text	**text	**text	**text	**text	**text	**kern	**text	**text	**text	**text	**text	**text	**text	**kern	**text	**text	**text	**text	**text	**text	**text	**kern	**text	**text	**text	**text	**text	**text	**text	**kern	**text	**text	**text	**text	**text	**text	**text	**kern	**text	**text	**text	**text	**text	**text	**text	**kern	**text	**text	**text	**text	**text	**text	**text
*part8	*part8	*part8	*part8	*part8	*part8	*part8	*part8	*part7	*part7	*part7	*part7	*part7	*part7	*part7	*part7	*part6	*part6	*part6	*part6	*part6	*part6	*part6	*part6	*part5	*part5	*part5	*part5	*part5	*part5	*part5	*part5	*part4	*part4	*part4	*part4	*part4	*part4	*part4	*part4	*part3	*part3	*part3	*part3	*part3	*part3	*part3	*part3	*part2	*part2	*part2	*part2	*part2	*part2	*part2	*part2	*part1	*part1	*part1	*part1	*part1	*part1	*part1	*part1
*staff8	*staff8	*staff8	*staff8	*staff8	*staff8	*staff8	*staff8	*staff7	*staff7	*staff7	*staff7	*staff7	*staff7	*staff7	*staff7	*staff6	*staff6	*staff6	*staff6	*staff6	*staff6	*staff6	*staff6	*staff5	*staff5	*staff5	*staff5	*staff5	*staff5	*staff5	*staff5	*staff4	*staff4	*staff4	*staff4	*staff4	*staff4	*staff4	*staff4	*staff3	*staff3	*staff3	*staff3	*staff3	*staff3	*staff3	*staff3	*staff2	*staff2	*staff2	*staff2	*staff2	*staff2	*staff2	*staff2	*staff1	*staff1	*staff1	*staff1	*staff1	*staff1	*staff1	*staff1
*Iempty	*	*	*	*	*	*	*	*Iempty	*	*	*	*	*	*	*	*Iempty	*	*	*	*	*	*	*	*Iempty	*	*	*	*	*	*	*	*Iempty	*	*	*	*	*	*	*	*Iempty	*	*	*	*	*	*	*	*Iempty	*	*	*	*	*	*	*	*Iempty	*	*	*	*	*	*	*
*I"Baſsus 2di Chori	*	*	*	*	*	*	*	*I"Altus secundi Chori.	*	*	*	*	*	*	*	*I"Cantus 2dus Secundi Chori.	*	*	*	*	*	*	*	*I"Primus Cantus 2di Chori	*	*	*	*	*	*	*	*I"Bassus Primi Chori.	*	*	*	*	*	*	*	*I"Cantus 3tius Primi Chori	*	*	*	*	*	*	*	*I"Cantus 2dus Primi Chori.	*	*	*	*	*	*	*	*I"Im(us) Cantus Primi Chori	*	*	*	*	*	*	*
*I'Coro 2 B	*	*	*	*	*	*	*	*I'Coro 2 A	*	*	*	*	*	*	*	*I'Coro 2 S 2	*	*	*	*	*	*	*	*I'Coro 2 S 1	*	*	*	*	*	*	*	*I'Coro 1 B	*	*	*	*	*	*	*	*I'Coro 1 S 3	*	*	*	*	*	*	*	*I'Coro 1 S 2	*	*	*	*	*	*	*	*I'Coro 1 S 1	*	*	*	*	*	*	*
*clefC3	*	*	*	*	*	*	*	*clefC2	*	*	*	*	*	*	*	*clefC1	*	*	*	*	*	*	*	*clefG2	*	*	*	*	*	*	*	*clefC3	*	*	*	*	*	*	*	*clefC2	*	*	*	*	*	*	*	*clefC1	*	*	*	*	*	*	*	*clefG2	*	*	*	*	*	*	*
*k[b-]	*	*	*	*	*	*	*	*k[b-]	*	*	*	*	*	*	*	*k[b-]	*	*	*	*	*	*	*	*k[b-]	*	*	*	*	*	*	*	*k[b-]	*	*	*	*	*	*	*	*k[b-]	*	*	*	*	*	*	*	*k[b-]	*	*	*	*	*	*	*	*k[b-]	*	*	*	*	*	*	*
*F:	*	*	*	*	*	*	*	*F:	*	*	*	*	*	*	*	*F:	*	*	*	*	*	*	*	*F:	*	*	*	*	*	*	*	*F:	*	*	*	*	*	*	*	*F:	*	*	*	*	*	*	*	*F:	*	*	*	*	*	*	*	*F:	*	*	*	*	*	*	*
*M3/1	*	*	*	*	*	*	*	*M3/1	*	*	*	*	*	*	*	*M3/1	*	*	*	*	*	*	*	*M3/1	*	*	*	*	*	*	*	*M3/1	*	*	*	*	*	*	*	*M3/1	*	*	*	*	*	*	*	*M3/1	*	*	*	*	*	*	*	*M3/1	*	*	*	*	*	*	*
=1-	=1-	=1-	=1-	=1-	=1-	=1-	=1-	=1-	=1-	=1-	=1-	=1-	=1-	=1-	=1-	=1-	=1-	=1-	=1-	=1-	=1-	=1-	=1-	=1-	=1-	=1-	=1-	=1-	=1-	=1-	=1-	=1-	=1-	=1-	=1-	=1-	=1-	=1-	=1-	=1-	=1-	=1-	=1-	=1-	=1-	=1-	=1-	=1-	=1-	=1-	=1-	=1-	=1-	=1-	=1-	=1-	=1-	=1-	=1-	=1-	=1-	=1-	=1-
!!LO:TX:t=P:problem:w źródle metrum trójdzielne zapisane jako 3/2, ale ze względu na podział nut w taktach transkrybujemy jako 3/1:global
!LO:TX:a:Bi:t=De Beata Virgine in Aduentu D(omi)ni	!	!	!	!	!	!	!	!LO:TX:a:Bi:t=De Beata Virgine In Aduentu D(omi)ni	!	!	!	!	!	!	!	!LO:TX:a:Bi:t=De Beata Virgine A 8 V. In Aduentu Domini	!	!	!	!	!	!	!	!LO:TX:a:Bi:t=De Beata Virgine A 8 V. Semper	!	!	!	!	!	!	!	!LO:TX:a:Bi:t=De Beata Virgine A 8 V. Semper.	!	!	!	!	!	!	!	!LO:TX:a:Bi:t=De Beata Virgine	!	!	!	!	!	!	!	!LO:TX:a:Bi:t=De Beata Virgine.	!	!	!	!	!	!	!	!LO:TX:a:Bi:t=De Beata Virgine in Aduentu et Semper.	!	!	!	!	!	!	!
0.r	.	.	.	.	.	.	.	0.r	.	.	.	.	.	.	.	0.r	.	.	.	.	.	.	.	0.r	.	.	.	.	.	.	.	0f	Gau-	Gau-	Gau-	Gau-	Gau-	Gau-	Gau-	0a	Gau-	Gau-	Gau-	Gau-	Gau-	Gau-	Gau-	0cc	Gau-	Gau-	Gau-	Gau-	Gau-	Gau-	Gau-	0ff	Gau-	Gau-	Gau-	Gau-	Gau-	Gau-	Gau-
.	.	.	.	.	.	.	.	.	.	.	.	.	.	.	.	.	.	.	.	.	.	.	.	.	.	.	.	.	.	.	.	1c	-de	-de	-de	-de	-de	-de	-de	1g	-de	-de	-de	-de	-de	-de	-de	1cc	-de	-de	-de	-de	-de	-de	-de	1ee	-de	-de	-de	-de	-de	-de	-de
=2-	=2-	=2-	=2-	=2-	=2-	=2-	=2-	=2-	=2-	=2-	=2-	=2-	=2-	=2-	=2-	=2-	=2-	=2-	=2-	=2-	=2-	=2-	=2-	=2-	=2-	=2-	=2-	=2-	=2-	=2-	=2-	=2-	=2-	=2-	=2-	=2-	=2-	=2-	=2-	=2-	=2-	=2-	=2-	=2-	=2-	=2-	=2-	=2-	=2-	=2-	=2-	=2-	=2-	=2-	=2-	=2-	=2-	=2-	=2-	=2-	=2-	=2-	=2-
!	!	!	!	!	!	!	!	!LO:TX:t=P:problem=zmiana kolejności ostatnich 2 zwrotek [adnotacja "I" i "2"]	!	!	!	!	!	!	!	!	!	!	!	!	!	!	!	!	!	!	!	!	!	!	!	!	!	!	!	!	!	!	!	!	!	!	!	!	!	!	!	!	!	!	!	!	!	!	!	!	!	!	!	!	!	!	!
0f	Gau-	Gau-	Gau-	Gau-	Gau-	Gau-	Gau-	0c	Gau-	Gau-	Gau-	Gau-	Gau-	Gau-	Gau-	0cc	Gau-	Gau-	Gau-	Gau-	Gau-	Gau-	Gau-	0ff	Gau-	Gau-	Gau-	Gau-	Gau-	Gau-	Gau-	2F/	gau-	gau-	gau-	gau-	gau-	gau-	gau-	0f	gau-	gau-	gau-	gau-	gau-	gau-	gau-	1.a	gau-	gau-	gau-	gau-	gau-	gau-	gau-	0aa	gau-	gau-	gau-	gau-	gau-	gau-	gau-
.	.	.	.	.	.	.	.	.	.	.	.	.	.	.	.	.	.	.	.	.	.	.	.	.	.	.	.	.	.	.	.	2G/	.	.	.	.	.	.	.	.	.	.	.	.	.	.	.	.	.	.	.	.	.	.	.	.	.	.	.	.	.	.	.
.	.	.	.	.	.	.	.	.	.	.	.	.	.	.	.	.	.	.	.	.	.	.	.	.	.	.	.	.	.	.	.	2A/	.	.	.	.	.	.	.	.	.	.	.	.	.	.	.	.	.	.	.	.	.	.	.	.	.	.	.	.	.	.	.
.	.	.	.	.	.	.	.	.	.	.	.	.	.	.	.	.	.	.	.	.	.	.	.	.	.	.	.	.	.	.	.	2B-/	.	.	.	.	.	.	.	.	.	.	.	.	.	.	.	2b-\	.	.	.	.	.	.	.	.	.	.	.	.	.	.	.
1c	-de	-de	-de	-de	-de	-de	-de	1c	-de	-de	-de	-de	-de	-de	-de	1cc	-de	-de	-de	-de	-de	-de	-de	1ee	-de	-de	-de	-de	-de	-de	-de	1c	-de	-de	-de	-de	-de	-de	-de	1g	-de	-de	-de	-de	-de	-de	-de	1cc	-de	-de	-de	-de	-de	-de	-de	1gg	-de	-de	-de	-de	-de	-de	-de
=3-	=3-	=3-	=3-	=3-	=3-	=3-	=3-	=3-	=3-	=3-	=3-	=3-	=3-	=3-	=3-	=3-	=3-	=3-	=3-	=3-	=3-	=3-	=3-	=3-	=3-	=3-	=3-	=3-	=3-	=3-	=3-	=3-	=3-	=3-	=3-	=3-	=3-	=3-	=3-	=3-	=3-	=3-	=3-	=3-	=3-	=3-	=3-	=3-	=3-	=3-	=3-	=3-	=3-	=3-	=3-	=3-	=3-	=3-	=3-	=3-	=3-	=3-	=3-
2F/	pi-	qui-	qui-	qui-	Chr(i-	qui-	quae	0c	pi-	qui-	qui-	qui-	Chr(i-	qui-	quae	1.a	pi-	qui-	qui-	qui-	CHri-	qui-	quae	0ff	pi-	qui-	qui-	qui-	Chri-	qui-	quae	0f	pi-	qui-	qui-	qui-	Chri-	qui-	quae	0a	pi-	qui-	qui-	qui-	Chri-	qui-	quae	0cc	pi-	qui-	qui-	qui-	CHri-	qui-	quae	0ff	pi-	qui-	qui-	qui-	Chri-	qui-	quae
2G/	.	.	.	.	.	.	.	.	.	.	.	.	.	.	.	.	.	.	.	.	.	.	.	.	.	.	.	.	.	.	.	.	.	.	.	.	.	.	.	.	.	.	.	.	.	.	.	.	.	.	.	.	.	.	.	.	.	.	.	.	.	.	.
2A/	.	.	.	.	.	.	.	.	.	.	.	.	.	.	.	.	.	.	.	.	.	.	.	.	.	.	.	.	.	.	.	.	.	.	.	.	.	.	.	.	.	.	.	.	.	.	.	.	.	.	.	.	.	.	.	.	.	.	.	.	.	.	.
2B-/	.	.	.	.	.	.	.	.	.	.	.	.	.	.	.	2b-\	.	.	.	.	.	.	.	.	.	.	.	.	.	.	.	.	.	.	.	.	.	.	.	.	.	.	.	.	.	.	.	.	.	.	.	.	.	.	.	.	.	.	.	.	.	.	.
1c	-a	-a	-a	-a	-st)o	-a	post	1c	-a	-a	-a	-a	-st)o	-a	post	1cc	-a	-a	-a	-a	-sto	-a	post	1gg	-a	-a	-a	-a	-sto	-a	post	1c	-a	-a	-a	-a	-sto	-a	post	1g	-a	-a	-a	-a	-sto	-a	post	1cc	-a	-a	-a	-a	-sto	-a	post	1ee	-a	-a	-a	-a	-sto	-a	post
=4-	=4-	=4-	=4-	=4-	=4-	=4-	=4-	=4-	=4-	=4-	=4-	=4-	=4-	=4-	=4-	=4-	=4-	=4-	=4-	=4-	=4-	=4-	=4-	=4-	=4-	=4-	=4-	=4-	=4-	=4-	=4-	=4-	=4-	=4-	=4-	=4-	=4-	=4-	=4-	=4-	=4-	=4-	=4-	=4-	=4-	=4-	=4-	=4-	=4-	=4-	=4-	=4-	=4-	=4-	=4-	=4-	=4-	=4-	=4-	=4-	=4-	=4-	=4-
*M2/1	*	*	*	*	*	*	*	*M2/1	*	*	*	*	*	*	*	*M2/1	*	*	*	*	*	*	*	*M2/1	*	*	*	*	*	*	*	*M2/1	*	*	*	*	*	*	*	*M2/1	*	*	*	*	*	*	*	*M2/1	*	*	*	*	*	*	*	*M2/1	*	*	*	*	*	*	*
*met(c|)	*	*	*	*	*	*	*	*met(c|)	*	*	*	*	*	*	*	*met(c|)	*	*	*	*	*	*	*	*met(c|)	*	*	*	*	*	*	*	*met(c|)	*	*	*	*	*	*	*	*met(c|)	*	*	*	*	*	*	*	*met(c|)	*	*	*	*	*	*	*	*met(c|)	*	*	*	*	*	*	*
2d\	Ma-	De-	ob-	tu-	as-	pa-	Chr(i-	2.f\	Ma-	De-	ob-	tu-	aſ-	pa-	Ch(ri-	2dd\	Ma-	De-	ob-	tu-	as-	pa-	Chr(i-	2dd\	Ma-	De-	ob-	tu-	aſſ-	Pa-	Chri-	2B-/	Ma-	De-	ob-	tu-	aſſ-	Pa-	Chri-	2f\	Ma-	De-	ob-	tu-	as-	pa-	CHri-	2b-\	ma-	De-	ob-	tu-	as-	pa-	CHri-	4dd\	Ma-	De-	ob-	tu-	aſſ-	Pa-	Chri-
.	.	.	.	.	.	.	.	.	.	.	.	.	.	.	.	.	.	.	.	.	.	.	.	.	.	.	.	.	.	.	.	.	.	.	.	.	.	.	.	.	.	.	.	.	.	.	.	.	.	.	.	.	.	.	.	4ee\	.	.	.	.	.	.	.
2f\	-ter	-o	-la-	-i	-cen-	-ra-	-st)um	.	.	.	.	.	.	.	.	2a\	-ter	-o	-la-	-i	-cen-	-ra-	-st)um	2cc\	-ter	-o	-la-	-i	-cen-	-ra-	-stum	2F/	-ter	-o	-la-	-i	-cen-	-ra-	-stum	2f\	-ter	-o	-la-	-i	-cen-	-ra-	-stum	2a\	-ter	-o	-la-	-i	-cen-	-ra-	-stum	2.ff\	-ter	-o	-la-	-i	-cen-	-ra-	-stum
.	.	.	.	.	.	.	.	4c/	-ter	-o	-la-	-i	-cen-	-ra-	-st)um	.	.	.	.	.	.	.	.	.	.	.	.	.	.	.	.	.	.	.	.	.	.	.	.	.	.	.	.	.	.	.	.	.	.	.	.	.	.	.	.	.	.	.	.	.	.	.	.
1c	Chr(i-	ple-	-ti-	Na-	-den-	-cly-	scan-	1c	Chr(i-	ple-	-ti-	na-	-den-	-clÿ-	scan-	1cc	Chri-	ple-	-ti-	na-	-den-	-cly-	scan-	1cc	Chri-	ple-	-ti-	Na-	-den-	-cle-	Scan-	1c	Chri-	ple-	-ti-	Na-	-den-	-cle-	Scan-	1g	Chri-	ple-	-ti-	na-	-den-	-cly-	Scan-	1g	Chri-	ple-	-ti-	na-	-den-	-cly-	Scan-	.	.	.	.	.	.	.	.
.	.	.	.	.	.	.	.	.	.	.	.	.	.	.	.	.	.	.	.	.	.	.	.	.	.	.	.	.	.	.	.	.	.	.	.	.	.	.	.	.	.	.	.	.	.	.	.	.	.	.	.	.	.	.	.	8ee\L	.	.	.	.	.	.	.
.	.	.	.	.	.	.	.	.	.	.	.	.	.	.	.	.	.	.	.	.	.	.	.	.	.	.	.	.	.	.	.	.	.	.	.	.	.	.	.	.	.	.	.	.	.	.	.	.	.	.	.	.	.	.	.	8dd\J	.	.	.	.	.	.	.
.	.	.	.	.	.	.	.	.	.	.	.	.	.	.	.	.	.	.	.	.	.	.	.	.	.	.	.	.	.	.	.	.	.	.	.	.	.	.	.	.	.	.	.	.	.	.	.	.	.	.	.	.	.	.	.	2ee\	Chri-	ple-	-ti-	Na-	-den-	-clẏ-	Scan-
=5-	=5-	=5-	=5-	=5-	=5-	=5-	=5-	=5-	=5-	=5-	=5-	=5-	=5-	=5-	=5-	=5-	=5-	=5-	=5-	=5-	=5-	=5-	=5-	=5-	=5-	=5-	=5-	=5-	=5-	=5-	=5-	=5-	=5-	=5-	=5-	=5-	=5-	=5-	=5-	=5-	=5-	=5-	=5-	=5-	=5-	=5-	=5-	=5-	=5-	=5-	=5-	=5-	=5-	=5-	=5-	=5-	=5-	=5-	=5-	=5-	=5-	=5-	=5-
!	!	!	!	!	!	!	!	!	!	!	!	!	!	!	!	!	!	!	!	!	!	!	!	!LO:TX:t=P:global:problem=oddech jako rozdzielacz słów	!	!	!	!	!	!	!	!	!	!	!	!	!	!	!	!	!	!	!	!	!	!	!	!	!	!	!	!	!	!	!	!	!	!	!	!	!	!	!
2f\	-st)i	-na	-o	-ti	-te	-tus	-dis	2c/	-st)i	-na	-o	-ti	-te	-tus	-dis	2cc\	-sti	-na	-o	-ti	-te	-tus	-dis	2cc,<\	-sti	-na	-o	-ti	-te	-tus	-dis	1F	-sti	-na	-o	-ti	-te	-tus	-dis	1f	-sti	-na	-o	-ti	-te	-tus	-dis	1a	-sti	-na	-o	-ti	-te	-tus	-dis	1ff	-sti	-na	-o	-ti	-te	-tus	-dis
1f	Quae	Pe-	Re-	Quem	Qui	de-	Et	1a	Quae	Pe-	Re-	Quem	Qui	de-	Et	1cc	quae	pe-	Re-	quem	qui	de-	et	1ff	Quae	Pe-	Re-	Quem	Qui	De-	Et	.	.	.	.	.	.	.	.	.	.	.	.	.	.	.	.	.	.	.	.	.	.	.	.	.	.	.	.	.	.	.	.
.	.	.	.	.	.	.	.	.	.	.	.	.	.	.	.	.	.	.	.	.	.	.	.	.	.	.	.	.	.	.	.	00r	.	.	.	.	.	.	.	00r	.	.	.	.	.	.	.	00r	.	.	.	.	.	.	.	00r	.	.	.	.	.	.	.
2c/	per	-pe-	-gum	Vi-	in	-mis-	est	2g\	per	-pe-	-gum	ui-	in	-mis-	est	2cc\	per	-pe-	-gum	vi-	in	-miſ-	est	2ee\	per	-pe-	-gum	Vi-	in	-miſ-	est	.	.	.	.	.	.	.	.	.	.	.	.	.	.	.	.	.	.	.	.	.	.	.	.	.	.	.	.	.	.	.	.
=6-	=6-	=6-	=6-	=6-	=6-	=6-	=6-	=6-	=6-	=6-	=6-	=6-	=6-	=6-	=6-	=6-	=6-	=6-	=6-	=6-	=6-	=6-	=6-	=6-	=6-	=6-	=6-	=6-	=6-	=6-	=6-	=6-	=6-	=6-	=6-	=6-	=6-	=6-	=6-	=6-	=6-	=6-	=6-	=6-	=6-	=6-	=6-	=6-	=6-	=6-	=6-	=6-	=6-	=6-	=6-	=6-	=6-	=6-	=6-	=6-	=6-	=6-	=6-
1d	au-	-ri-	at-	-de-	cae-	-sus	ho-	2.f\	au-	-ri-	at-	-de-	cae-	-sus	ho-	2.a\	au-	-ri-	at-	-de-	cae-	-sus	ho-	1dd	au-	-ri-	at-	-de-	cae-	-ſus	ho-	.	.	.	.	.	.	.	.	.	.	.	.	.	.	.	.	.	.	.	.	.	.	.	.	.	.	.	.	.	.	.	.
.	.	.	.	.	.	.	.	4g\	.	.	.	.	.	.	.	4b-\	.	.	.	.	.	.	.	.	.	.	.	.	.	.	.	.	.	.	.	.	.	.	.	.	.	.	.	.	.	.	.	.	.	.	.	.	.	.	.	.	.	.	.	.	.	.	.
1A	-rem	-sti	-q(ue)	-bas	-lum	fu-	-nor	2a\	-rem	-sti	-q(ue)	-bas	-lum	fu-	-nor	1cc	-rem	-sti	-q(ue)	-bas	-lum	fu-	-nor	1cc	-rem	-sti	-q(ue)	-bas	-lum	fu-	-nor	.	.	.	.	.	.	.	.	.	.	.	.	.	.	.	.	.	.	.	.	.	.	.	.	.	.	.	.	.	.	.	.
!	!	!	!	!	!	!	!	!LO:TX:t=P:global:problem=oddech jako rozdzielacz słów	!	!	!	!	!	!	!	!	!	!	!	!	!	!	!	!	!	!	!	!	!	!	!	!	!	!	!	!	!	!	!	!	!	!	!	!	!	!	!	!	!	!	!	!	!	!	!	!	!	!	!	!	!	!	!
.	.	.	.	.	.	.	.	2cc,<\	.	.	.	.	.	.	.	.	.	.	.	.	.	.	.	.	.	.	.	.	.	.	.	.	.	.	.	.	.	.	.	.	.	.	.	.	.	.	.	.	.	.	.	.	.	.	.	.	.	.	.	.	.	.	.
=7-	=7-	=7-	=7-	=7-	=7-	=7-	=7-	=7-	=7-	=7-	=7-	=7-	=7-	=7-	=7-	=7-	=7-	=7-	=7-	=7-	=7-	=7-	=7-	=7-	=7-	=7-	=7-	=7-	=7-	=7-	=7-	=7-	=7-	=7-	=7-	=7-	=7-	=7-	=7-	=7-	=7-	=7-	=7-	=7-	=7-	=7-	=7-	=7-	=7-	=7-	=7-	=7-	=7-	=7-	=7-	=7-	=7-	=7-	=7-	=7-	=7-	=7-	=7-
2B-/	con-	si-	de-	mor-	te	-it	ti-	2b-\	con-	si-	de-	mor-	te	-it	ti-	2dd\	con-	Si-	de-	mor-	te	-it	ti-	2dd\	con-	si-	de-	mor-	te	-it	ti-	.	.	.	.	.	.	.	.	.	.	.	.	.	.	.	.	.	.	.	.	.	.	.	.	.	.	.	.	.	.	.	.
2c/	-ce-	-ne	-uo-	-tem	Vi-	cae-	-bi	2g\	-ce-	-ne	-uo-	-tem	Vi-	cae-	-bi	1cc	-ce-	-ne	-uo-	-tem	vi-	Cae-	-bi	2ee\	-ce-	-ne	-uo-	-tem	Vi-	cae-	-bi	.	.	.	.	.	.	.	.	.	.	.	.	.	.	.	.	.	.	.	.	.	.	.	.	.	.	.	.	.	.	.	.
1d	-pi-	pae-	-ti-	pa-	-den-	-li-	gran-	1f	-pi-	pae-	-ti-	pa-	-den-	-li-	gran-	.	.	.	.	.	.	.	.	1ff	-pi-	pae-	-ti-	pa-	-den-	-li-	gran-	1r	.	.	.	.	.	.	.	1r	.	.	.	.	.	.	.	1r	.	.	.	.	.	.	.	1r	.	.	.	.	.	.	.
!	!	!	!	!	!	!	!	!	!	!	!	!	!	!	!	!LO:TX:a:t=P:problem=w źródle krzyżyk w roli kasownika	!	!	!	!	!	!	!	!	!	!	!	!	!	!	!	!	!	!	!	!	!	!	!	!	!	!	!	!	!	!	!	!	!	!	!	!	!	!	!	!	!	!	!	!	!	!	!
!	!	!	!	!	!	!	!	!	!	!	!	!	!	!	!	!LO:TX:t=P:problem=# below	!	!	!	!	!	!	!	!	!	!	!	!	!	!	!	!	!	!	!	!	!	!	!	!	!	!	!	!	!	!	!	!	!	!	!	!	!	!	!	!	!	!	!	!	!	!	!
!	!	!	!	!	!	!	!	!	!	!	!	!	!	!	!	!LO:N:acc=#	!	!	!	!	!	!	!	!	!	!	!	!	!	!	!	!	!	!	!	!	!	!	!	!	!	!	!	!	!	!	!	!	!	!	!	!	!	!	!	!	!	!	!	!	!	!	!
.	.	.	.	.	.	.	.	.	.	.	.	.	.	.	.	2bn\	-pi-	poe-	-ti-	pa-	-den-	-li-	gran-	.	.	.	.	.	.	.	.	.	.	.	.	.	.	.	.	.	.	.	.	.	.	.	.	.	.	.	.	.	.	.	.	.	.	.	.	.	.	.	.
=8-	=8-	=8-	=8-	=8-	=8-	=8-	=8-	=8-	=8-	=8-	=8-	=8-	=8-	=8-	=8-	=8-	=8-	=8-	=8-	=8-	=8-	=8-	=8-	=8-	=8-	=8-	=8-	=8-	=8-	=8-	=8-	=8-	=8-	=8-	=8-	=8-	=8-	=8-	=8-	=8-	=8-	=8-	=8-	=8-	=8-	=8-	=8-	=8-	=8-	=8-	=8-	=8-	=8-	=8-	=8-	=8-	=8-	=8-	=8-	=8-	=8-	=8-	=8-
2c/	-sti	-na	-o	-ti	-te	-tus	-dis	2g\	-sti	-na.	-o	-ti	-te	-tus	-dis	2cc\	-sti	-na	-o	-ti	-te	-tus	-dis	2ee\	-sti	-na.	-o	-ti	-te	-tus	-dis	2r	.	.	.	.	.	.	.	2r	.	.	.	.	.	.	.	2r	.	.	.	.	.	.	.	2r	.	.	.	.	.	.	.
2r	.	.	.	.	.	.	.	2r	.	.	.	.	.	.	.	2r	.	.	.	.	.	.	.	2r	.	.	.	.	.	.	.	1f	Quae	Pe-	Re-	Quem	Qui	De-	Et	1a	Quae	Pe-	Re-	Quem	Qui	De-	et	1cc	quae	pe-	Re-	quem	Qui	De-	et	1aa	Quae	Pe-	Re-	Quem	Qui	De-	Et
00r	.	.	.	.	.	.	.	00r	.	.	.	.	.	.	.	00r	.	.	.	.	.	.	.	00r	.	.	.	.	.	.	.	.	.	.	.	.	.	.	.	.	.	.	.	.	.	.	.	.	.	.	.	.	.	.	.	.	.	.	.	.	.	.	.
.	.	.	.	.	.	.	.	.	.	.	.	.	.	.	.	.	.	.	.	.	.	.	.	.	.	.	.	.	.	.	.	2c/	per	-pe-	-gum	Vi-	in	-miſ-	est	2e/	per	-pe-	-gum	Vi-	in	-mis-	est	2cc\	per	-pe-	-gum	vi-	in	-miſ-	est	2gg\	per	-pe-	-gum	Vi-	in	-miſ-	est
=9-	=9-	=9-	=9-	=9-	=9-	=9-	=9-	=9-	=9-	=9-	=9-	=9-	=9-	=9-	=9-	=9-	=9-	=9-	=9-	=9-	=9-	=9-	=9-	=9-	=9-	=9-	=9-	=9-	=9-	=9-	=9-	=9-	=9-	=9-	=9-	=9-	=9-	=9-	=9-	=9-	=9-	=9-	=9-	=9-	=9-	=9-	=9-	=9-	=9-	=9-	=9-	=9-	=9-	=9-	=9-	=9-	=9-	=9-	=9-	=9-	=9-	=9-	=9-
.	.	.	.	.	.	.	.	.	.	.	.	.	.	.	.	.	.	.	.	.	.	.	.	.	.	.	.	.	.	.	.	1d	au-	-ri-	at-	-de-	cae-	-ſus	ho-	2.f\	au-	-ri-	at-	-de-	cae-	-sus	ho-	2.a\	au-	-ri-	at-	-de-	cae-	-sus	ho-	1ff	au-	-ri-	at-	-de-	cae-	-ſus	ho-
.	.	.	.	.	.	.	.	.	.	.	.	.	.	.	.	.	.	.	.	.	.	.	.	.	.	.	.	.	.	.	.	.	.	.	.	.	.	.	.	4g\	.	.	.	.	.	.	.	4b-\	.	.	.	.	.	.	.	.	.	.	.	.	.	.	.
.	.	.	.	.	.	.	.	.	.	.	.	.	.	.	.	.	.	.	.	.	.	.	.	.	.	.	.	.	.	.	.	2A/	-rem	-sti	-q(ue)	-bas	-lum	fu-	-nor	2a\	-rem	-sti	-q(ue)	-bas	-lum	fu-	-nor	2cc\	-rem	-sti	-q(ue)	-bas	-lum	fu-	-nor	2ee\	-rem	-sti	-q(ue)	-bas	-lum	fu-	-nor
.	.	.	.	.	.	.	.	.	.	.	.	.	.	.	.	.	.	.	.	.	.	.	.	.	.	.	.	.	.	.	.	1G/	con-	si-	de-	mor-	te	-it	ti-	1b-\	con-	si-	de-	mor-	te	-it	ti-	1dd\	con-	si-	de-	mor-	te	-it	ti-	1gg\	con-	si-	de-	mor-	te	-it	ti-
=10-	=10-	=10-	=10-	=10-	=10-	=10-	=10-	=10-	=10-	=10-	=10-	=10-	=10-	=10-	=10-	=10-	=10-	=10-	=10-	=10-	=10-	=10-	=10-	=10-	=10-	=10-	=10-	=10-	=10-	=10-	=10-	=10-	=10-	=10-	=10-	=10-	=10-	=10-	=10-	=10-	=10-	=10-	=10-	=10-	=10-	=10-	=10-	=10-	=10-	=10-	=10-	=10-	=10-	=10-	=10-	=10-	=10-	=10-	=10-	=10-	=10-	=10-	=10-
.	.	.	.	.	.	.	.	.	.	.	.	.	.	.	.	.	.	.	.	.	.	.	.	.	.	.	.	.	.	.	.	.	.	.	.	.	.	.	.	.	.	.	.	.	.	.	.	.	.	.	.	.	.	.	.	.	.	.	.	.	.	.	.
.	.	.	.	.	.	.	.	.	.	.	.	.	.	.	.	.	.	.	.	.	.	.	.	.	.	.	.	.	.	.	.	2d\	-ce-	-ne	-uo-	-tem	Vi-	cae-	-bi	2a\	-ce-	-ne	-uo-	-tem	vi-	cae-	-bi	2dd\	-ce-	-ne	-uo-	-tem	vi-	Cae-	-bi	2ff\	-ce-	-ne	-uo-	-tem	Vi-	cae-	-bi
!	!	!	!	!	!	!	!	!	!	!	!	!	!	!	!	!	!	!	!	!	!	!	!	!	!	!	!	!	!	!	!	!	!	!	!	!	!	!	!	!	!	!	!	!	!	!	!	!LO:TX:b:t=P:problem=# below	!	!	!	!	!	!	!	!	!	!	!	!	!	!	!
1r	.	.	.	.	.	.	.	1r	.	.	.	.	.	.	.	1r	.	.	.	.	.	.	.	1r	.	.	.	.	.	.	.	2A/	-pi-	pae-	-ti-	pa-	-den-	-li-	gran-	2a\	-pi-	pae-	-ti-	pa-	-den-	-li-	gran-	2cc#X\	-pi-	poe-	-ti-	pa-	-den-	-li-	gran-	2ee\	-pi-	pae-	-ti-	pa-	-den-	-li-	gran-
!	!	!	!	!	!	!	!	!	!	!	!	!	!	!	!	!	!	!	!	!	!	!	!	!	!	!	!	!	!	!	!	!LO:TX:t=P:global:problem=oddech jako rozdzielacz słów	!	!	!	!	!	!	!	!LO:TX:t=P:global:problem=oddech jako rozdzielacz słów	!	!	!	!	!	!	!	!	!	!	!	!	!	!	!	!LO:TX:t=P:global:problem=oddech jako rozdzielacz słów	!	!	!	!	!	!	!
.	.	.	.	.	.	.	.	.	.	.	.	.	.	.	.	.	.	.	.	.	.	.	.	.	.	.	.	.	.	.	.	2d,<\	-sti	-na	-o	-ti	-te	-tus	-dis	2a,<\	-sti	-na	-o	-ti	-te	-tus	-dis	2dd\	-sti	-na	-o	-ti	-te	-tus	-dis	2dd,<\	-sti	-na	-o	-ti	-te	-tus	-dis
=11-	=11-	=11-	=11-	=11-	=11-	=11-	=11-	=11-	=11-	=11-	=11-	=11-	=11-	=11-	=11-	=11-	=11-	=11-	=11-	=11-	=11-	=11-	=11-	=11-	=11-	=11-	=11-	=11-	=11-	=11-	=11-	=11-	=11-	=11-	=11-	=11-	=11-	=11-	=11-	=11-	=11-	=11-	=11-	=11-	=11-	=11-	=11-	=11-	=11-	=11-	=11-	=11-	=11-	=11-	=11-	=11-	=11-	=11-	=11-	=11-	=11-	=11-	=11-
2.F/	Ga-	Cum	Ex-	Ful-	Mo-	In	In	2.f\	Ga-	Cum	Ex-	Ful-	Mo-	In	In	2.a\	Ga-	cum	Ex-	ful-	mo-	in	in	2.cc\	Ga-	Cum	Ex-	Ful-	Mo-	In	In	2.f\	Ga-	Cum	Ex-	Ful-	Mo-	In	In	2.a\	Ga-	Cum	Ex-	ful-	mo-	in	[in	2.a\	Ga-	cum	Ex-	ful-	mo-	in	[in	2.cc\	Ga-	Cum	Ex-	Ful-	Mo-	In	In
4F/	-bri-	pu-	-hi-	-get	-tu	tu-	cae-	4f\	-bri-	pu-	-hi-	-get	-tu	tu-	cae-	4a\	-bri-	pu-	-hi-	-get	-tu	tu-	cae-	4cc\	-bri-	pu-	-hi-	-get	-tu	tu-	cae-	4f\	-bri-	pu-	-hi-	-get	-tu	tu-	cae-	4a\	-bri-	pu-	-hi-	-get	-tu	tu-	cae-	4a\	-bri-	pu-	-hi-	-get	-tu	tu-	cae-	4cc\	-bri-	pu-	-hi-	-get	-tu	tu-	cae-
2B-/	-e-	-do-	-be-	Re-	fer-	-o	-li	2d/	-e-	-do-	-be-	Re-	fer-	-o	-li	2dd\	-e-	-do-	-be-	re-	fer-	-o	-li	2b-/	-e-	-do-	-be-	re-	fer-	-o	-li	2B-/	-e-	-do-	-be-	re-	fer-	-o	-li	2f\	-e-	-do-	-be-	re-	fer-	-o	-li	2b-\	-e-	-do-	-be-	re-	fer-	-o	-li	4dd\	-e-	-do-	-be-	re-	fer-	-o	-li
.	.	.	.	.	.	.	.	.	.	.	.	.	.	.	.	.	.	.	.	.	.	.	.	.	.	.	.	.	.	.	.	.	.	.	.	.	.	.	.	.	.	.	.	.	.	.	.	.	.	.	.	.	.	.	.	4ee\	.	.	.	.	.	.	.
!	!	!	!	!	!	!	!	!	!	!	!	!	!	!	!	!	!	!	!	!	!	!	!	!	!	!	!	!	!	!	!	!	!	!	!	!	!	!	!	!	!	!	!	!	!	!	!	!	!	!	!	!	!	!	!	!LO:PB:g=original	!	!	!	!	!	!	!
2f\	-le	-ris	-tur	-sur-	-tur	Col-	pal-	4f\	-le	-ris	-tur	-sur-	-tur	Col-	pal-	2cc\	-le	-ris	-tur	-sur-	-tur	Col-	pal-	2cc\	-le	-ris	-tur	-sur-	-tur	Col-	Pa-	2F/	-le	-ris	-tur	-ſur-	-tur	Col-	pa-	2f\	-le	-ris	-tur	-sur-	-tur	col-	pa-	2a\	-le	-ris	-tur	-sur-	-tur	Col-	pa-	2.ff\	-le	-ris	-tur	-ſur-	-tur	Col-	Pa-
.	.	.	.	.	.	.	.	4c/	.	.	.	.	.	.	.	.	.	.	.	.	.	.	.	.	.	.	.	.	.	.	.	.	.	.	.	.	.	.	.	.	.	.	.	.	.	.	.	.	.	.	.	.	.	.	.	.	.	.	.	.	.	.	.
!	!	!	!	!	!	!	!	!	!	!	!	!	!	!	!	!LO:PB:g=original	!	!	!	!	!	!	!	!	!	!	!	!	!	!	!	!	!	!	!	!	!	!	!	!	!	!	!	!	!	!	!	!	!	!	!	!	!	!	!	!	!	!	!	!	!	!	!
=12-	=12-	=12-	=12-	=12-	=12-	=12-	=12-	=12-	=12-	=12-	=12-	=12-	=12-	=12-	=12-	=12-	=12-	=12-	=12-	=12-	=12-	=12-	=12-	=12-	=12-	=12-	=12-	=12-	=12-	=12-	=12-	=12-	=12-	=12-	=12-	=12-	=12-	=12-	=12-	=12-	=12-	=12-	=12-	=12-	=12-	=12-	=12-	=12-	=12-	=12-	=12-	=12-	=12-	=12-	=12-	=12-	=12-	=12-	=12-	=12-	=12-	=12-	=12-
2.c/	nun-	li-	Fi-	-re-	pro-	-le-	-la-	2.c/	nun-	li-	Fi-	-re-	pro-	-le-	-la-	2.cc\	nun-	li-	fi-	-re-	pro-	-le-	-la-	2.cc\	nun-	li-	Fi-	-re-	pro-	-le-	-la-	2.c/	nun-	li-	Fi-	-re-	pro-	-le-	-la-	2.g\	nun-	li-	fi-	-re-	pro-	-le-	-la-	2.g/	nun-	li-	fi-	-re-	pro-	-le-	-la-	.	.	.	.	.	.	.	.
.	.	.	.	.	.	.	.	.	.	.	.	.	.	.	.	.	.	.	.	.	.	.	.	.	.	.	.	.	.	.	.	.	.	.	.	.	.	.	.	.	.	.	.	.	.	.	.	.	.	.	.	.	.	.	.	8ee\L	nun-	li-	Fi-	-re-	pro-	-le-	-la-
.	.	.	.	.	.	.	.	.	.	.	.	.	.	.	.	.	.	.	.	.	.	.	.	.	.	.	.	.	.	.	.	.	.	.	.	.	.	.	.	.	.	.	.	.	.	.	.	.	.	.	.	.	.	.	.	8dd\J	.	.	.	.	.	.	.
.	.	.	.	.	.	.	.	.	.	.	.	.	.	.	.	.	.	.	.	.	.	.	.	.	.	.	.	.	.	.	.	.	.	.	.	.	.	.	.	.	.	.	.	.	.	.	.	.	.	.	.	.	.	.	.	2ee\	-ci-	-li-	-li-	-cti-	-pri-	-gi-	-ti-
4c/	-ci-	-li-	-li-	-cti-	-pri-	-gi-	-ti-	4c/	-ci-	-li-	-li-	-cti-	-pri-	-gi-	-ti-	4cc\	-ti-	-li-	-li-	-cti-	-pri-	-gi-	-ti-	4cc\	-ci-	-li-	-li-	-cti-	-pri-	-gi-	-ti-	4c/	-ci-	-li-	-li-	-cti-	-pri-	-gi-	-ti-	4g\	-ci-	-li-	-li-	-cti-	-pri-	-gi-	-ti-	4g/	-ti-	-li-	-li-	-cti-	-pri-	-gi-	-ti-	.	.	.	.	.	.	.	.
!LO:PB:g=original	!	!	!	!	!	!	!	!LO:PB:g=original	!	!	!	!	!	!	!	!	!	!	!	!	!	!	!	!	!	!	!	!	!	!	!	!LO:PB:g=original	!	!	!	!	!	!	!	!	!	!	!	!	!	!	!	!LO:PB:g=original	!	!	!	!	!	!	!	!	!	!	!	!	!	!	!
00f	-o	-o	-o	-o	-o	-o	-o	1.c	-o	-o	-o	-o	-o	-o	-o	0a	-o	-o	-o	-o	-o	-o	-o	0cc	-o	-o	-o	-o	-o.	-o	-o	00F	-o	-o	-o	-o	-o	-o	-o	2f,<\	-o	-o	-o	-o	-o	-o	-o]	2a\	-o	-o	-o	-o	-o	-o	-o]	1ff	-o	-o	-o.	-o	-o.	-o.	-o
.	.	.	.	.	.	.	.	.	.	.	.	.	.	.	.	.	.	.	.	.	.	.	.	.	.	.	.	.	.	.	.	.	.	.	.	.	.	.	.	2a\	Ma-	Ma-	Ma-	Ma-	Ma-	Ma-	Ma-	2ccny\	Ma-	Ma-	Ma-	Ma-	Ma-	Ma-	Ma-	.	.	.	.	.	.	.	.
!	!	!	!	!	!	!	!	!	!	!	!	!	!	!	!	!	!	!	!	!	!	!	!	!LO:PB:g=original	!	!	!	!	!	!	!	!	!	!	!	!	!	!	!	!LO:PB:g=original	!	!	!	!	!	!	!	!	!	!	!	!	!	!	!	!	!	!	!	!	!	!	!
=13-	=13-	=13-	=13-	=13-	=13-	=13-	=13-	=13-	=13-	=13-	=13-	=13-	=13-	=13-	=13-	=13-	=13-	=13-	=13-	=13-	=13-	=13-	=13-	=13-	=13-	=13-	=13-	=13-	=13-	=13-	=13-	=13-	=13-	=13-	=13-	=13-	=13-	=13-	=13-	=13-	=13-	=13-	=13-	=13-	=13-	=13-	=13-	=13-	=13-	=13-	=13-	=13-	=13-	=13-	=13-	=13-	=13-	=13-	=13-	=13-	=13-	=13-	=13-
.	.	.	.	.	.	.	.	.	.	.	.	.	.	.	.	.	.	.	.	.	.	.	.	.	.	.	.	.	.	.	.	.	.	.	.	.	.	.	.	1a	-ri-	-ri-	-ri-	-ri-	-ri-	-ri-	-ri-	1cc	-ri-	-ri-	-ri-	-ri-	-ri-	-ri-	-ri-	2r	.	.	.	.	.	.	.
.	.	.	.	.	.	.	.	2a\	Ma-	Ma-	Ma-	Ma-	Ma-	Ma-	Ma-	.	.	.	.	.	.	.	.	.	.	.	.	.	.	.	.	.	.	.	.	.	.	.	.	.	.	.	.	.	.	.	.	.	.	.	.	.	.	.	.	2ff\	Ma-	Ma-	Ma-	Ma-	Ma-	Ma-	Ma-
.	.	.	.	.	.	.	.	1a	-ri-	-ri-	-ri-	-ri-	-ri-	-ri-	-ri-	2r	.	.	.	.	.	.	.	1r	.	.	.	.	.	.	.	.	.	.	.	.	.	.	.	1f	-a	-a	-a	-a	-a	-a	-a	1a	-a	-a	-a	-a	-a	-a	-a	1ff	-ri-	-ri-	-ri-	-ri-	-ri-	-ri-	-ri-
.	.	.	.	.	.	.	.	.	.	.	.	.	.	.	.	2cc\	Ma-	Ma-	Ma-	Ma-	Ma-	Ma-	Ma-	.	.	.	.	.	.	.	.	.	.	.	.	.	.	.	.	.	.	.	.	.	.	.	.	.	.	.	.	.	.	.	.	.	.	.	.	.	.	.	.
=14-	=14-	=14-	=14-	=14-	=14-	=14-	=14-	=14-	=14-	=14-	=14-	=14-	=14-	=14-	=14-	=14-	=14-	=14-	=14-	=14-	=14-	=14-	=14-	=14-	=14-	=14-	=14-	=14-	=14-	=14-	=14-	=14-	=14-	=14-	=14-	=14-	=14-	=14-	=14-	=14-	=14-	=14-	=14-	=14-	=14-	=14-	=14-	=14-	=14-	=14-	=14-	=14-	=14-	=14-	=14-	=14-	=14-	=14-	=14-	=14-	=14-	=14-	=14-
.	.	.	.	.	.	.	.	1f	-a	-a	-a	-a	-a	-a	-a	1cc	-ri-	-ri-	-ri-	-ri-	-ri-	-ri-	-ri-	2r	.	.	.	.	.	.	.	.	.	.	.	.	.	.	.	2.f\	O-	O-	o-	o-	o-	o-	o-	2.a\	o-	o-	o-	o-	o-	o-	O-	1cc	-a	-a	-a	-a	-a	-a	-a
.	.	.	.	.	.	.	.	.	.	.	.	.	.	.	.	.	.	.	.	.	.	.	.	2ff\	Ma-	Ma-	Ma-	Ma-	Ma-	Ma-	Ma-	.	.	.	.	.	.	.	.	.	.	.	.	.	.	.	.	.	.	.	.	.	.	.	.	.	.	.	.	.	.	.	.
.	.	.	.	.	.	.	.	.	.	.	.	.	.	.	.	.	.	.	.	.	.	.	.	.	.	.	.	.	.	.	.	.	.	.	.	.	.	.	.	4g\	.	.	.	.	.	.	.	4b-\	.	.	.	.	.	.	.	.	.	.	.	.	.	.	.
1r	.	.	.	.	.	.	.	1f	O-	O-	O-	o-	o-	o-	o-	2a\	-a	-a	-a	-a	-a	-a	-a	1ff	-ri-	-ri-	-ri-	-ri-	-ri-	-ri-	-ri-	2r	.	.	.	.	.	.	.	2a\	-ra	ra	-ra	-ra	-ra	-ra	-ra	2cc\	-ra	ra	-ra	-ra	-ra	-ra	-ra	1cc	O-	O-	O-	O-	O-	O-	O-
.	.	.	.	.	.	.	.	.	.	.	.	.	.	.	.	2a\	o-	o-	o-	o-	O-	O-	O-	.	.	.	.	.	.	.	.	2f\	Ma-	Ma-	Ma-	Ma-	Ma-	Ma-	Ma-	2a\	pro	pro	pro	pro	pro	pro	pro	2cc\	pro	pro	pro	pro	pro	pro	pro	.	.	.	.	.	.	.	.
=15-	=15-	=15-	=15-	=15-	=15-	=15-	=15-	=15-	=15-	=15-	=15-	=15-	=15-	=15-	=15-	=15-	=15-	=15-	=15-	=15-	=15-	=15-	=15-	=15-	=15-	=15-	=15-	=15-	=15-	=15-	=15-	=15-	=15-	=15-	=15-	=15-	=15-	=15-	=15-	=15-	=15-	=15-	=15-	=15-	=15-	=15-	=15-	=15-	=15-	=15-	=15-	=15-	=15-	=15-	=15-	=15-	=15-	=15-	=15-	=15-	=15-	=15-	=15-
2r	.	.	.	.	.	.	.	2f\	-ra	-ra	-ra	-ra	-ra	-ra	-ra	2a\	-ra	-ra	-ra	-ra	-ra	-ra	-ra	2cc\	-a	-a	-a	-a	-a	-a	-a	1f	-ri-	-ri-	-ri-	-ri-	-ri-	-ri-	-ri-	0a	no-	no-	no-	no-	no-	no-	no-	0cc	no-	no-	no-	no-	no-	no-	no-	2cc\	-ra	ra	-ra	-ra	-ra	-ra	-ra
2f\	Ma-	Ma-	Ma-	Ma-	Ma-	Ma-	Ma-	2f\	pro	pro	pro	pro	pro	pro	pro	2cc\	pro	pro	pro	pro	pro	pro	pro	2cc\	O-	O-	O-	O-	O-	O-	O-	.	.	.	.	.	.	.	.	.	.	.	.	.	.	.	.	.	.	.	.	.	.	.	.	2ff\	pro	pro	pro	pro	pro	pro	pro
1f	-ri-	-ri-	-ri-	-ri-	-ri-	-ri-	-ri-	2f\	no-	no-	no-	no-	no-	no-	no-	1cc	no-	no-	no-	no-	no-	no-	no-	2ff\	-ra	-ra	-ra	-ra	-ra	-ra	-ra	4F/	-a	-a	-a	-a	-a	-a	-a	.	.	.	.	.	.	.	.	.	.	.	.	.	.	.	.	2.ff\	no-	no-	no-	no-	no-	no-	no-
.	.	.	.	.	.	.	.	.	.	.	.	.	.	.	.	.	.	.	.	.	.	.	.	.	.	.	.	.	.	.	.	4G/	.	.	.	.	.	.	.	.	.	.	.	.	.	.	.	.	.	.	.	.	.	.	.	.	.	.	.	.	.	.	.
.	.	.	.	.	.	.	.	2c/	.	.	.	.	.	.	.	.	.	.	.	.	.	.	.	2cc\	pro	pro	pro	pro	pro	pro	pro	4A/	.	.	.	.	.	.	.	.	.	.	.	.	.	.	.	.	.	.	.	.	.	.	.	.	.	.	.	.	.	.	.
.	.	.	.	.	.	.	.	.	.	.	.	.	.	.	.	.	.	.	.	.	.	.	.	.	.	.	.	.	.	.	.	4B-/	.	.	.	.	.	.	.	.	.	.	.	.	.	.	.	.	.	.	.	.	.	.	.	8ee\L	.	.	.	.	.	.	.
.	.	.	.	.	.	.	.	.	.	.	.	.	.	.	.	.	.	.	.	.	.	.	.	.	.	.	.	.	.	.	.	.	.	.	.	.	.	.	.	.	.	.	.	.	.	.	.	.	.	.	.	.	.	.	.	8dd\J	.	.	.	.	.	.	.
=16-	=16-	=16-	=16-	=16-	=16-	=16-	=16-	=16-	=16-	=16-	=16-	=16-	=16-	=16-	=16-	=16-	=16-	=16-	=16-	=16-	=16-	=16-	=16-	=16-	=16-	=16-	=16-	=16-	=16-	=16-	=16-	=16-	=16-	=16-	=16-	=16-	=16-	=16-	=16-	=16-	=16-	=16-	=16-	=16-	=16-	=16-	=16-	=16-	=16-	=16-	=16-	=16-	=16-	=16-	=16-	=16-	=16-	=16-	=16-	=16-	=16-	=16-	=16-
1c	-a	-a	-a	-a	-a	-a	-a	1c	-bis	-bis	-bis	-bis	-bis	-bis	-bis	1cc	-bis	-bis	-bis	-bis	-bis	-bis	-bis	1cc	no-	no-	no-	no-	no-	no-	no-	1c,<	.	.	.	.	.	.	.	1g,<	-bis	-bis	-bis	-bis	-bis	-bis	-bis	1cc	-bis	-bis	-bis	-bis	-bis	-bis	-bis	1ee	-bis	-bis	-bis	-bis	-bis	-bis	-bis
*	*	*	*	*	*	*	*	*	*	*ij	*ij	*ij	*ij	*ij	*ij	*	*	*ij	*ij	*ij	*ij	*ij	*ij	*	*	*	*	*	*	*	*	*	*	*	*	*	*	*	*	*	*	*	*	*	*	*	*	*	*	*	*ij	*ij	*ij	*ij	*ij	*	*	*	*ij	*ij	*ij	*ij	*ij
4f\	o-	o-	o-	o-	o-	o-	o-	1c	O-	O-	O-	o-	o-	o-	o-	1cc	o-	o-	o-	o-	O-	O-	O-	2cc\	-bis	-bis	-bis	-bis	-bis	-bis	-bis	1F	O-	O-	O-	O-	O-	O-	O-	1a	O-	o-	o-	o-	o-	o-	o-	1a	o-	o-	o-	o-	o-	o-	O-	1cc	O-	O-	O-	O-	O-	O-	O-
4e\	.	.	.	.	.	.	.	.	.	.	.	.	.	.	.	.	.	.	.	.	.	.	.	.	.	.	.	.	.	.	.	.	.	.	.	.	.	.	.	.	.	.	.	.	.	.	.	.	.	.	.	.	.	.	.	.	.	.	.	.	.	.	.
*	*	*	*	*	*	*	*	*	*	*	*	*	*	*	*	*	*	*	*	*	*	*	*	*	*	*ij	*ij	*ij	*ij	*ij	*ij	*	*	*	*	*	*	*	*	*	*	*	*	*	*	*	*	*	*	*	*	*	*	*	*	*	*	*	*	*	*	*	*
4d\	.	.	.	.	.	.	.	.	.	.	.	.	.	.	.	.	.	.	.	.	.	.	.	2ff\	O-	O-	O-	O-	O-	O-	O-	.	.	.	.	.	.	.	.	.	.	.	.	.	.	.	.	.	.	.	.	.	.	.	.	.	.	.	.	.	.	.	.
4c/	.	.	.	.	.	.	.	.	.	.	.	.	.	.	.	.	.	.	.	.	.	.	.	.	.	.	.	.	.	.	.	.	.	.	.	.	.	.	.	.	.	.	.	.	.	.	.	.	.	.	.	.	.	.	.	.	.	.	.	.	.	.	.
=17-	=17-	=17-	=17-	=17-	=17-	=17-	=17-	=17-	=17-	=17-	=17-	=17-	=17-	=17-	=17-	=17-	=17-	=17-	=17-	=17-	=17-	=17-	=17-	=17-	=17-	=17-	=17-	=17-	=17-	=17-	=17-	=17-	=17-	=17-	=17-	=17-	=17-	=17-	=17-	=17-	=17-	=17-	=17-	=17-	=17-	=17-	=17-	=17-	=17-	=17-	=17-	=17-	=17-	=17-	=17-	=17-	=17-	=17-	=17-	=17-	=17-	=17-	=17-
2B-/	-ra	ra	-ra	-ra	-ra	-ra	-ra	2f\	-ra	-ra	-ra	-ra	-ra	-ra	-ra	2b-y\	-ra	-ra	-ra	-ra	-ra	-ra	-ra	2dd\	-ra	-ra	-ra	-ra	-ra	-ra	-ra	2B-/	-ra	ra	-ra	-ra	-ra	-ra	-ra	2f\	-ra	ra	-ra	-ra	-ra	-ra	-ra	2b-\	-ra	ra	-ra	-ra	-ra	-ra	-ra	4dd\	-ra	ra	-ra	-ra	-ra	-ra	-ra
.	.	.	.	.	.	.	.	.	.	.	.	.	.	.	.	.	.	.	.	.	.	.	.	.	.	.	.	.	.	.	.	.	.	.	.	.	.	.	.	.	.	.	.	.	.	.	.	.	.	.	.	.	.	.	.	4ee\	.	.	.	.	.	.	.
2f\	pro	pro	pro	pro	pro	pro	pro	4f\	pro	pro	pro	pro	pro	pro	pro	2cc\	pro	pro	pro	pro	pro	pro	pro	2cc\	pro	pro	pro	pro	pro	pro	pro	2F/	pro	pro	pro	pro	pro	pro	pro	2f\	pro	pro	pro	pro	pro	pro	pro	2a\	pro	pro	pro	pro	pro	pro	pro	2.ff\	pro	pro	pro	pro	pro	pro	pro
.	.	.	.	.	.	.	.	4c/	.	.	.	.	.	.	.	.	.	.	.	.	.	.	.	.	.	.	.	.	.	.	.	.	.	.	.	.	.	.	.	.	.	.	.	.	.	.	.	.	.	.	.	.	.	.	.	.	.	.	.	.	.	.	.
1c	no-	no-	no-	no-	no-	no-	no-	1c	no-	no-	no-	no-	no-	no-	no-	1cc	no-	no-	no-	no-	no-	no-	no-	0cc	no-	no-	no-	no-	no-	no-	no-	1c	no-	no-	no-	no-	no-	no-	no-	1g	no-	no-	no-	no-	no-	no-	no-	1g	no-	no-	no-	no-	no-	no-	no-	.	.	.	.	.	.	.	.
.	.	.	.	.	.	.	.	.	.	.	.	.	.	.	.	.	.	.	.	.	.	.	.	.	.	.	.	.	.	.	.	.	.	.	.	.	.	.	.	.	.	.	.	.	.	.	.	.	.	.	.	.	.	.	.	8ee\L	.	.	.	.	.	.	.
.	.	.	.	.	.	.	.	.	.	.	.	.	.	.	.	.	.	.	.	.	.	.	.	.	.	.	.	.	.	.	.	.	.	.	.	.	.	.	.	.	.	.	.	.	.	.	.	.	.	.	.	.	.	.	.	8dd\J	.	.	.	.	.	.	.
.	.	.	.	.	.	.	.	.	.	.	.	.	.	.	.	.	.	.	.	.	.	.	.	.	.	.	.	.	.	.	.	.	.	.	.	.	.	.	.	.	.	.	.	.	.	.	.	.	.	.	.	.	.	.	.	2ee\	no-	no-	no-	no-	no-	no-	no-
=18-	=18-	=18-	=18-	=18-	=18-	=18-	=18-	=18-	=18-	=18-	=18-	=18-	=18-	=18-	=18-	=18-	=18-	=18-	=18-	=18-	=18-	=18-	=18-	=18-	=18-	=18-	=18-	=18-	=18-	=18-	=18-	=18-	=18-	=18-	=18-	=18-	=18-	=18-	=18-	=18-	=18-	=18-	=18-	=18-	=18-	=18-	=18-	=18-	=18-	=18-	=18-	=18-	=18-	=18-	=18-	=18-	=18-	=18-	=18-	=18-	=18-	=18-	=18-
00f	-bis	-bis	-bis	-bis	-bis	-bis	-bis	1.c,<	-bis	-bis	-bis	-bis	-bis	-bis	-bis	0a	-bis	-bis	-bis	-bis	-bis	-bis	-bis	.	.	.	.	.	.	.	.	00F	-bis	-bis	-bis	-bis	-bis	-bis	-bis	2f,<\	-bis	-bis	-bis	-bis	-bis	-bis	-bis	2a\	-bis	-bis	-bis	-bis	-bis	-bis	-bis	1ff	-bis	-bis	-bis	-bis	-bis	-bis	-bis
*	*	*	*	*	*	*	*	*	*	*	*	*	*	*	*	*	*	*	*	*	*	*	*	*	*	*	*	*	*	*	*	*	*	*	*	*	*	*	*	*	*	*ij	*ij	*ij	*ij	*ij	*ij	*	*ij	*ij	*	*	*	*	*	*	*	*	*	*	*	*	*
.	.	.	.	.	.	.	.	.	.	.	.	.	.	.	.	.	.	.	.	.	.	.	.	.	.	.	.	.	.	.	.	.	.	.	.	.	.	.	.	2a\	Ma-	Ma-	Ma-	Ma-	Ma-	Ma-	Ma-	2cc\	Ma-	Ma-	Ma-	Ma-	Ma-	Ma-	Ma-	.	.	.	.	.	.	.	.
.	.	.	.	.	.	.	.	.	.	.	.	.	.	.	.	.	.	.	.	.	.	.	.	1cc	-bis	-bis	-bis	-bis	-bis	-bis	-bis	.	.	.	.	.	.	.	.	1a	-ri-	-ri-	-ri-	-ri-	-ri-	-ri-	-ri-	1cc	-ri-	-ri-	-ri-	-ri-	-ri-	-ri-	-ri-	2r	.	.	.	.	.	.	.
*	*	*	*	*	*	*	*	*	*	*	*	*	*	*	*	*	*	*	*	*	*	*	*	*	*	*	*	*	*	*	*	*	*	*	*	*	*	*	*	*	*	*	*	*	*	*	*	*	*	*	*	*	*	*	*	*	*	*ij	*	*	*	*	*
.	.	.	.	.	.	.	.	2a\	Ma-	Ma-	Ma-	Ma-	Ma-	Ma-	Ma-	.	.	.	.	.	.	.	.	.	.	.	.	.	.	.	.	.	.	.	.	.	.	.	.	.	.	.	.	.	.	.	.	.	.	.	.	.	.	.	.	2ff\	Ma-	Ma-	Ma-	Ma-	Ma-	Ma-	Ma-
=19-	=19-	=19-	=19-	=19-	=19-	=19-	=19-	=19-	=19-	=19-	=19-	=19-	=19-	=19-	=19-	=19-	=19-	=19-	=19-	=19-	=19-	=19-	=19-	=19-	=19-	=19-	=19-	=19-	=19-	=19-	=19-	=19-	=19-	=19-	=19-	=19-	=19-	=19-	=19-	=19-	=19-	=19-	=19-	=19-	=19-	=19-	=19-	=19-	=19-	=19-	=19-	=19-	=19-	=19-	=19-	=19-	=19-	=19-	=19-	=19-	=19-	=19-	=19-
.	.	.	.	.	.	.	.	1a	-ri-	-ri-	-ri-	-ri-	-ri-	-ri-	-ri-	2r	.	.	.	.	.	.	.	1r	.	.	.	.	.	.	.	.	.	.	.	.	.	.	.	1f	-a	-a	-a	-a	-a	-a	-a	1a	-a	-a	-a	-a	-a	-a	-a	1ff	-ri-	-ri-	-ri-	-ri-	-ri-	-ri-	-ri-
*	*	*	*	*	*	*	*	*	*	*	*	*	*	*	*	*	*ij	*	*	*	*	*	*	*	*	*	*	*	*	*	*	*	*	*	*	*	*	*	*	*	*	*	*	*	*	*	*	*	*	*	*	*	*	*	*	*	*	*	*	*	*	*	*
.	.	.	.	.	.	.	.	.	.	.	.	.	.	.	.	2cc\	Ma-	Ma-	Ma-	Ma-	Ma-	Ma-	Ma-	.	.	.	.	.	.	.	.	.	.	.	.	.	.	.	.	.	.	.	.	.	.	.	.	.	.	.	.	.	.	.	.	.	.	.	.	.	.	.	.
*	*	*	*	*	*	*	*	*	*	*	*	*	*	*	*	*	*	*	*	*	*	*	*	*	*	*	*	*	*	*	*	*	*	*	*	*	*	*	*	*	*	*	*	*	*	*	*	*	*	*	*Xij	*Xij	*Xij	*Xij	*Xij	*	*	*	*	*	*	*	*
*	*	*	*	*	*	*	*	*	*	*	*	*	*	*	*	*	*	*	*	*	*	*	*	*	*	*	*	*	*	*	*	*	*	*	*	*	*	*	*	*	*	*	*	*	*	*	*	*	*	*	*ij	*ij	*ij	*ij	*ij	*	*	*	*	*	*	*	*
.	.	.	.	.	.	.	.	1f	-a	-a	-a	-a	-a	-a	-a	1cc	-ri-	-ri-	-ri-	-ri-	-ri-	-ri-	-ri-	2r	.	.	.	.	.	.	.	.	.	.	.	.	.	.	.	2.f\	O-	o-	o-	o-	o-	o-	o-	2.a\	o-	o-	o-	o-	o-	o-	O-	1cc	-a	-a	-a	-a	-a	-a	-a
.	.	.	.	.	.	.	.	.	.	.	.	.	.	.	.	.	.	.	.	.	.	.	.	2ff\	Ma-	Ma-	Ma-	Ma-	Ma-	Ma-	Ma-	.	.	.	.	.	.	.	.	.	.	.	.	.	.	.	.	.	.	.	.	.	.	.	.	.	.	.	.	.	.	.	.
.	.	.	.	.	.	.	.	.	.	.	.	.	.	.	.	.	.	.	.	.	.	.	.	.	.	.	.	.	.	.	.	.	.	.	.	.	.	.	.	4g\	.	.	.	.	.	.	.	4b-\	.	.	.	.	.	.	.	.	.	.	.	.	.	.	.
*	*	*	*	*	*	*	*	*	*	*Xij	*Xij	*Xij	*Xij	*Xij	*Xij	*	*	*	*	*	*	*	*	*	*	*	*	*	*	*	*	*	*	*	*	*	*	*	*	*	*	*	*	*	*	*	*	*	*	*	*	*	*	*	*	*	*	*Xij	*Xij	*Xij	*Xij	*Xij	*Xij
=20-	=20-	=20-	=20-	=20-	=20-	=20-	=20-	=20-	=20-	=20-	=20-	=20-	=20-	=20-	=20-	=20-	=20-	=20-	=20-	=20-	=20-	=20-	=20-	=20-	=20-	=20-	=20-	=20-	=20-	=20-	=20-	=20-	=20-	=20-	=20-	=20-	=20-	=20-	=20-	=20-	=20-	=20-	=20-	=20-	=20-	=20-	=20-	=20-	=20-	=20-	=20-	=20-	=20-	=20-	=20-	=20-	=20-	=20-	=20-	=20-	=20-	=20-	=20-
*	*	*	*	*	*	*	*	*	*	*ij	*ij	*ij	*ij	*ij	*ij	*	*	*	*	*	*	*	*	*	*	*	*	*	*	*	*	*	*	*	*	*	*	*	*	*	*	*	*	*	*	*	*	*	*	*	*	*	*	*	*	*	*	*ij	*ij	*ij	*ij	*ij	*ij
1r	.	.	.	.	.	.	.	1f	O-	O-	O-	o-	o-	o-	o-	2a\	-a	-a	-a	-a	-a	-a	-a	1ff	-ri-	-ri-	-ri-	-ri-	-ri-	-ri-	-ri-	2r	.	.	.	.	.	.	.	2a\	-ra	ra	-ra	-ra	-ra	-ra	-ra	2cc\	-ra	ra	-ra	-ra	-ra	-ra	-ra	1cc	O-	O-	O-	O-	O-	O-	O-
*	*	*	*	*	*	*	*	*	*	*	*	*	*	*	*	*	*	*Xij	*Xij	*Xij	*Xij	*Xij	*Xij	*	*	*	*	*	*	*	*	*	*	*	*	*	*	*	*	*	*	*	*	*	*	*	*	*	*	*	*	*	*	*	*	*	*	*	*	*	*	*	*
*	*	*	*	*	*	*	*	*	*	*	*	*	*	*	*	*	*	*ij	*ij	*ij	*ij	*ij	*ij	*	*	*	*	*	*	*	*	*	*	*ij	*ij	*ij	*ij	*ij	*ij	*	*	*	*	*	*	*	*	*	*	*	*	*	*	*	*	*	*	*	*	*	*	*	*
.	.	.	.	.	.	.	.	.	.	.	.	.	.	.	.	2a\	o-	o-	o-	o-	O-	O-	O-	.	.	.	.	.	.	.	.	2f\	Ma-	Ma-	Ma-	Ma-	Ma-	Ma-	Ma-	2a\	pro	pro	pro	pro	pro	pro	pro	2cc\	pro	pro	pro	pro	pro	pro	pro	.	.	.	.	.	.	.	.
2r	.	.	.	.	.	.	.	2f\	-ra	-ra	-ra	-ra	-ra	-ra	-ra	2a\	-ra	-ra	-ra	-ra	-ra	-ra	-ra	2cc\	-a	-a	-a	-a	-a	-a	-a	1f	-ri-	-ri-	-ri-	-ri-	-ri-	-ri-	-ri-	0a	no-	no-	no-	no-	no-	no-	no-	1cc	no-	no-	no-	no-	no-	no-	no-	2cc\	-ra	ra	-ra	-ra	-ra	-ra	-ra
*	*	*	*	*	*	*	*	*	*	*	*	*	*	*	*	*	*	*	*	*	*	*	*	*	*	*Xij	*Xij	*Xij	*Xij	*Xij	*Xij	*	*	*	*	*	*	*	*	*	*	*	*	*	*	*	*	*	*	*	*	*	*	*	*	*	*	*	*	*	*	*	*
*	*	*ij	*ij	*ij	*ij	*ij	*ij	*	*	*	*	*	*	*	*	*	*	*	*	*	*	*	*	*	*	*ij	*ij	*ij	*ij	*ij	*ij	*	*	*	*	*	*	*	*	*	*	*	*	*	*	*	*	*	*	*	*	*	*	*	*	*	*	*	*	*	*	*	*
2f\	Ma-	Ma-	Ma-	Ma-	Ma-	Ma-	Ma-	2f\	pro	pro	pro	pro	pro	pro	pro	2cc\	pro	pro	pro	pro	pro	pro	pro	2cc\	O-	O-	O-	O-	O-	O-	O-	.	.	.	.	.	.	.	.	.	.	.	.	.	.	.	.	.	.	.	.	.	.	.	.	2ff\	pro	pro	pro	pro	pro	pro	pro
=21-	=21-	=21-	=21-	=21-	=21-	=21-	=21-	=21-	=21-	=21-	=21-	=21-	=21-	=21-	=21-	=21-	=21-	=21-	=21-	=21-	=21-	=21-	=21-	=21-	=21-	=21-	=21-	=21-	=21-	=21-	=21-	=21-	=21-	=21-	=21-	=21-	=21-	=21-	=21-	=21-	=21-	=21-	=21-	=21-	=21-	=21-	=21-	=21-	=21-	=21-	=21-	=21-	=21-	=21-	=21-	=21-	=21-	=21-	=21-	=21-	=21-	=21-	=21-
1f	-ri-	-ri-	-ri-	-ri-	-ri-	-ri-	-ri-	2f\	no-	no-	no-	no-	no-	no-	no-	1cc	no-	no-	no-	no-	no-	no-	no-	2ff\	-ra	-ra	-ra	-ra	-ra	-ra	-ra	4F/	-a	-a	-a	-a	-a	-a	-a	.	.	.	.	.	.	.	.	0cc	-bis	-bis	-bis	-bis	-bis	-bis	-bis	2.ff\	no-	no-	no-	no-	no-	no-	no-
.	.	.	.	.	.	.	.	.	.	.	.	.	.	.	.	.	.	.	.	.	.	.	.	.	.	.	.	.	.	.	.	4G/	.	.	.	.	.	.	.	.	.	.	.	.	.	.	.	.	.	.	.	.	.	.	.	.	.	.	.	.	.	.	.
.	.	.	.	.	.	.	.	2c/	.	.	.	.	.	.	.	.	.	.	.	.	.	.	.	2cc\	pro	pro	pro	pro	pro	pro	pro	4A/	.	.	.	.	.	.	.	.	.	.	.	.	.	.	.	.	.	.	.	.	.	.	.	.	.	.	.	.	.	.	.
.	.	.	.	.	.	.	.	.	.	.	.	.	.	.	.	.	.	.	.	.	.	.	.	.	.	.	.	.	.	.	.	4B-/	.	.	.	.	.	.	.	.	.	.	.	.	.	.	.	.	.	.	.	.	.	.	.	8ee\L	.	.	.	.	.	.	.
.	.	.	.	.	.	.	.	.	.	.	.	.	.	.	.	.	.	.	.	.	.	.	.	.	.	.	.	.	.	.	.	.	.	.	.	.	.	.	.	.	.	.	.	.	.	.	.	.	.	.	.	.	.	.	.	8dd\J	.	.	.	.	.	.	.
1c	-a	-a	-a	-a	-a	-a	-a	1c	-bis	-bis	-bis	-bis	-bis	-bis	-bis	1cc	-bis	-bis	-bis	-bis	-bis	-bis	-bis	1cc	no-	no-	no-	no-	no-	no-	no-	1c,<	.	.	.	.	.	.	.	1g,<	-bis	-bis	-bis	-bis	-bis	-bis	-bis	.	.	.	.	.	.	.	.	1ee	-bis	-bis	-bis	-bis	-bis	-bis	-bis
*	*	*	*	*	*	*	*	*	*	*	*	*	*	*	*	*	*	*	*	*	*	*	*	*	*	*	*	*	*	*	*	*	*	*	*	*	*	*	*	*	*	*	*	*	*	*	*	*	*	*	*	*	*	*	*	*	*	*Xij	*Xij	*Xij	*Xij	*Xij	*Xij
=22-	=22-	=22-	=22-	=22-	=22-	=22-	=22-	=22-	=22-	=22-	=22-	=22-	=22-	=22-	=22-	=22-	=22-	=22-	=22-	=22-	=22-	=22-	=22-	=22-	=22-	=22-	=22-	=22-	=22-	=22-	=22-	=22-	=22-	=22-	=22-	=22-	=22-	=22-	=22-	=22-	=22-	=22-	=22-	=22-	=22-	=22-	=22-	=22-	=22-	=22-	=22-	=22-	=22-	=22-	=22-	=22-	=22-	=22-	=22-	=22-	=22-	=22-	=22-
*	*	*	*	*	*	*	*	*	*	*	*	*	*	*	*	*	*	*	*	*	*	*	*	*	*	*	*	*	*	*	*	*	*	*	*	*	*	*	*	*	*	*	*	*	*	*	*	*	*	*	*	*	*	*	*	*	*	*ij	*ij	*ij	*ij	*ij	*ij
1F	o-	o-	o-	o-	o-	o-	o-	1c	O-	O-	O-	o-	o-	o-	o-	1cc	o-	o-	o-	o-	O-	O-	O-	2cc\	-bis	-bis	-bis	-bis	-bis	-bis	-bis	4f\	O-	O-	O-	O-	O-	O-	O-	1a	O-	o-	o-	o-	o-	o-	o-	1a	o-	o-	o-	o-	o-	o-	O-	2.ff\	O-	O-	O-	O-	O-	O-	O-
.	.	.	.	.	.	.	.	.	.	.	.	.	.	.	.	.	.	.	.	.	.	.	.	.	.	.	.	.	.	.	.	4e\	.	.	.	.	.	.	.	.	.	.	.	.	.	.	.	.	.	.	.	.	.	.	.	.	.	.	.	.	.	.	.
.	.	.	.	.	.	.	.	.	.	.	.	.	.	.	.	.	.	.	.	.	.	.	.	2ff\	O-	O-	O-	O-	O-	O-	O-	4d\	.	.	.	.	.	.	.	.	.	.	.	.	.	.	.	.	.	.	.	.	.	.	.	.	.	.	.	.	.	.	.
.	.	.	.	.	.	.	.	.	.	.	.	.	.	.	.	.	.	.	.	.	.	.	.	.	.	.	.	.	.	.	.	4c/	.	.	.	.	.	.	.	.	.	.	.	.	.	.	.	.	.	.	.	.	.	.	.	4ee\	.	.	.	.	.	.	.
2B-/	-ra	-ra	-ra	-ra	-ra	-ra	-ra	2f\	-ra	-ra	-ra	-ra	-ra	-ra	-ra	2b-\	-ra	-ra	-ra	-ra	-ra	-ra	-ra	2dd\	-ra	-ra	-ra	-ra	-ra	-ra	-ra	2B-/	-ra	ra	-ra	-ra	-ra	-ra	-ra	2f\	-ra	ra	-ra	-ra	-ra	-ra	-ra	2b-\	-ra	ra	-ra	-ra	-ra	-ra	-ra	4dd\	-ra	ra	-ra	-ra	-ra	-ra	-ra
.	.	.	.	.	.	.	.	.	.	.	.	.	.	.	.	.	.	.	.	.	.	.	.	.	.	.	.	.	.	.	.	.	.	.	.	.	.	.	.	.	.	.	.	.	.	.	.	.	.	.	.	.	.	.	.	4ee\	.	.	.	.	.	.	.
2f\	pro	pro	pro	pro	pro	pro	pro	4f\	pro	pro	pro	pro	pro	pro	pro	2cc\	pro	pro	pro	pro	pro	pro	pro	2cc\	pro	pro	pro	pro	pro	pro	pro	2F/	pro	pro	pro	pro	pro	pro	pro	2f\	pro	pro	pro	pro	pro	pro	pro	2a\	pro	pro	pro	pro	pro	pro	pro	2.ff\	pro	pro	pro	pro	pro	pro	pro
.	.	.	.	.	.	.	.	4c/	.	.	.	.	.	.	.	.	.	.	.	.	.	.	.	.	.	.	.	.	.	.	.	.	.	.	.	.	.	.	.	.	.	.	.	.	.	.	.	.	.	.	.	.	.	.	.	.	.	.	.	.	.	.	.
=23-	=23-	=23-	=23-	=23-	=23-	=23-	=23-	=23-	=23-	=23-	=23-	=23-	=23-	=23-	=23-	=23-	=23-	=23-	=23-	=23-	=23-	=23-	=23-	=23-	=23-	=23-	=23-	=23-	=23-	=23-	=23-	=23-	=23-	=23-	=23-	=23-	=23-	=23-	=23-	=23-	=23-	=23-	=23-	=23-	=23-	=23-	=23-	=23-	=23-	=23-	=23-	=23-	=23-	=23-	=23-	=23-	=23-	=23-	=23-	=23-	=23-	=23-	=23-
1c	no-	no-	no-	no-	no-	no-	no-	1c	no-	no-	no-	no-	no-	no-	no-	1cc	no-	no-	no-	no-	no-	no-	no-	1cc	no-	no-	no-	no-	no-	no-	no-	1c	no-	no-	no-	no-	no-	no-	no-	1g	no-	no-	no-	no-	no-	no-	no-	1g	no-	no-	no-	no-	no-	no-	no-	.	.	.	.	.	.	.	.
.	.	.	.	.	.	.	.	.	.	.	.	.	.	.	.	.	.	.	.	.	.	.	.	.	.	.	.	.	.	.	.	.	.	.	.	.	.	.	.	.	.	.	.	.	.	.	.	.	.	.	.	.	.	.	.	8ee\L	.	.	.	.	.	.	.
.	.	.	.	.	.	.	.	.	.	.	.	.	.	.	.	.	.	.	.	.	.	.	.	.	.	.	.	.	.	.	.	.	.	.	.	.	.	.	.	.	.	.	.	.	.	.	.	.	.	.	.	.	.	.	.	8dd\J	.	.	.	.	.	.	.
.	.	.	.	.	.	.	.	.	.	.	.	.	.	.	.	.	.	.	.	.	.	.	.	.	.	.	.	.	.	.	.	.	.	.	.	.	.	.	.	.	.	.	.	.	.	.	.	.	.	.	.	.	.	.	.	2ee\	no-	no-	no-	no-	no-	no-	no-
!!LO:TX:a:t=P:W każdym głosie ozdobne nuty końcowe:problem
1fl;;	-bis	-bis	-bis	-bis	-bis	-bis	-bis	1cl;>	-bis.	-bis.	-bis.	-bis.	-bis.	-bis.	-bis.	1ccl;>	-bis	-bis	-bis	-bis	-bis	-bis	-bis	1ccl;>	-bis.	-bis.	-bis.	-bis.	-bis.	-bis.	-bis.	1Fl;>	-bis.	-bis	-bis	-bis	-bis	-bis	-bis	1fl;;	-bis	-bis	-bis	-bis	-bis	-bis	-bis	1al;>	-bis	-bis	-bis	-bis	-bis	-bis	-bis	1ffl;<	-bis	-bis	-bis	-bis	-bis	-bis	-bis
*	*	*Xij	*Xij	*Xij	*Xij	*Xij	*Xij	*	*	*Xij	*Xij	*Xij	*Xij	*Xij	*Xij	*	*Xij	*Xij	*Xij	*Xij	*Xij	*Xij	*Xij	*	*	*Xij	*Xij	*Xij	*Xij	*Xij	*Xij	*	*	*Xij	*Xij	*Xij	*Xij	*Xij	*Xij	*	*	*Xij	*Xij	*Xij	*Xij	*Xij	*Xij	*	*Xij	*Xij	*Xij	*Xij	*Xij	*Xij	*Xij	*	*	*Xij	*Xij	*Xij	*Xij	*Xij	*Xij
==	==	==	==	==	==	==	==	==	==	==	==	==	==	==	==	==	==	==	==	==	==	==	==	==	==	==	==	==	==	==	==	==	==	==	==	==	==	==	==	==	==	==	==	==	==	==	==	==	==	==	==	==	==	==	==	==	==	==	==	==	==	==	==
*-	*-	*-	*-	*-	*-	*-	*-	*-	*-	*-	*-	*-	*-	*-	*-	*-	*-	*-	*-	*-	*-	*-	*-	*-	*-	*-	*-	*-	*-	*-	*-	*-	*-	*-	*-	*-	*-	*-	*-	*-	*-	*-	*-	*-	*-	*-	*-	*-	*-	*-	*-	*-	*-	*-	*-	*-	*-	*-	*-	*-	*-	*-	*-
!!title: @{OTL};
!!!RDF**kern: > = above
!!!RDF**kern: < = below
!!!RDF**kern: | = vertical stroke
!!!RDF**kern: N = linked
!!!RDF**kern: i = editorial accidental
!!!RDF**kern: l = terminal long
!!!ENC: Andrzej Kubiczek
!!!END: 2021-10-29
!!!EED: Wojciech Jakubiak-Danek
!!!EST: 2021-11-02
!!!URL-scan: http://repozytorium.nifc.pl/skany/pl-sa-nut--l1643
!!!ONB-nifc: UWAGA: 8 ksiąg. Primi chori: 1mus Cantus (strona 162-163, księga 1 skan 0094), C 2dus (strona 164-165, księga 2 skan 0088), C 3tius (strona 160-161, księga 3 skan 0070), Bassus (strona 160-161, księga 4 skan 0082); Secondi chori: Primus Cantus (strona 165-166, księga 5 skan 0061), C 2dus (strona 166-167, księga 6 skan 0074), Altus (strona 164-165, księga 7 skan 0080), Bassus (strona 161-162, księga 8 skan 0080). UWAGA: Nie dodawać pustych linii, chyba że w rękopisie pojawiają się dodatkowe oznaczenia dotyczące pełnej obsady (a 4, a 8 itp.)
